X: 28065
T: Mr Ferguson Of Raith's
R: strathspey
M: 4/4
K: Gmajor
|:G<GG>d G>Bd>B|A<AA>B c>d e<a|G<GG>d G>Bd>B|A>GA>B e>e e<g:|
|:d>eg>b a>g e<g|d>e g<B d>G Bd|e2 e<g d>eg>B|B<AB>^d e<E E2:|

